X: 1528
T: Nühüft Seyir
C: Şefik Gürmeriç
O: Turkey
F: http://compmusic.upf.edu/node/140
N: nuhuft--seyir--sofyan--1--sefik_gurmeric
N: makam= nuhuft
N: form= seyir
N: usul= sofyan = 4/4
M: 4/4
L: 1/16
K: C _1/4B ^f  
Q: 1/4=60
%%MIDI tuningsystem comma53
c4 d4 d4 e4  | d4 c2d2 c4 _2/4B4  | g6f2 =f3e d4  | \
w:   |   |   | 
ede=f e2d2 d8  | 
w:   | 
d4 a4 g2=f2 e2d2  | e3d c2d2 c4 d2e2  | \
w:   |   | 
g2=f2 e2d2 d2c2 c2_2/4B2  | 
w:   | 
_2/4BABc B2A2 A8  | G4 A4 A4 d2c2  | \
w:   |   | 
c2_2/4B2 B2A2 A2G2 G2F2  | F4 E2F2 G4 A2=B2  | 
w:   |   | 
A2G2 F2E2 D8  | d4 e2=f2 a2g2 f2e2  | \
w:   |   | 
d4 c2=B2 A2B2 A2G2  | G6F2 FEFG F2E2  | 
w:   |   | 
E16  | |


